X:455
T: Treues Kreuz von edler Wrde (5-51), S. 85f
N: P0725
O: Lothringen
S: MERKELBACH-PINCK, Angelika: Verklingende Weisen, Bd 5, Kassel 1962]
R: geistliches, religiöses Lied]
M: 4/4
L: 1/8
K: F
 | F2G2ABc2 | d2cdefc2
dcBdcAF2 | B2AAG4
G2A2Gcc2 | =Bcd2cde2
f2edc2Bc | E2FFG4
G2ceG2Ac | c2=BBc4
EFG2FGA2 | GAB2ABc2
A2B2c2d2 | cdcdc4
cdcdc2BA | A2GGF4

